actions/24/dialog-transform.svg

<?xml version="1.0" encoding="UTF-8" standalone="no"?>
<svg
   width="24"
   height="24"
   version="1.1"
   id="svg9"
   sodipodi:docname="dialog-transform.svg"
   inkscape:version="1.1.2 (0a00cf5339, 2022-02-04)"
   xmlns:inkscape="http://www.inkscape.org/namespaces/inkscape"
   xmlns:sodipodi="http://sodipodi.sourceforge.net/DTD/sodipodi-0.dtd"
   xmlns="http://www.w3.org/2000/svg"
   xmlns:svg="http://www.w3.org/2000/svg">
  <sodipodi:namedview
     id="namedview11"
     pagecolor="#000000"
     bordercolor="#666666"
     borderopacity="1.0"
     inkscape:pageshadow="2"
     inkscape:pageopacity="0"
     inkscape:pagecheckerboard="0"
     showgrid="false"
     inkscape:zoom="28.416667"
     inkscape:cx="12"
     inkscape:cy="11.964809"
     inkscape:window-width="1837"
     inkscape:window-height="967"
     inkscape:window-x="0"
     inkscape:window-y="29"
     inkscape:window-maximized="1"
     inkscape:current-layer="g7" />
  <defs
     id="defs3">
    <style
       id="current-color-scheme"
       type="text/css">
   .ColorScheme-Text { color:#eeeeec; } .ColorScheme-Highlight { color:#367bf0; } .ColorScheme-NeutralText { color:#ffcc44; } .ColorScheme-PositiveText { color:#3db47e; } .ColorScheme-NegativeText { color:#dd4747; }
  </style>
  </defs>
  <g
     transform="translate(4,4)"
     id="g7">
    <path
       style="fill:currentColor"
       class="ColorScheme-Text"
       d="M 2,2 C 1,2 1,3 1,3 V 7 H 3 V 4 H 6 V 2 Z m 8,0 v 2 h 3 v 3 h 2 V 3 C 15,2 14,2 14,2 Z M 7.5889817,3.8220365 v 0 L 6.3573592,6.2852817 6.8113158,7 V 7 H 9.2378402 V 7 L 9.6170469,6.2340938 8.4136623,3.8273246 Z m -1.2534015,5.849124 v 0 l 1.2802593,2.5605185 0.7498296,0.03698 v 0 L 9.6462372,9.7075255 v 0 L 9.0977715,9 H 6.8113158 Z M 1,9 v 4 c 0,1 1,1 1,1 H 6 V 12 H 3 V 9 Z m 12,0 v 3 h -3 v 2 h 4 c 0,0 1,0 1,-1 V 9 Z"
       id="path5"
       sodipodi:nodetypes="sccccccscccccscccccccccccccccccccccccscccccccccccscc" />
  </g>
</svg>

<svg xmlns="http://www.w3.org/2000/svg" width="24" height="24" version="1.1">
 <defs>
  <style id="current-color-scheme" type="text/css">
   .ColorScheme-Text { color:#eeeeec; } .ColorScheme-Highlight { color:#367bf0; } .ColorScheme-NeutralText { color:#ffcc44; } .ColorScheme-PositiveText { color:#3db47e; } .ColorScheme-NegativeText { color:#dd4747; }
  </style>
 </defs>
 <g transform="translate(4,4)">
  <path style="fill:currentColor" class="ColorScheme-Text" d="M 2,2 C 1,2 1,3 1,3 V 7 H 3 V 4 H 6 V 2 Z M 10,2 V 4 H 13 V 7 H 15 V 3 C 15,2 14,2 14,2 Z M 8,3 6,7 H 10 Z M 6,9 8,13 10,9 Z M 1,9 V 13 C 1,14 2,14 2,14 H 6 V 12 H 3 V 9 Z M 13,9 V 12 H 10 V 14 H 14 C 14,14 15,14 15,13 V 9 Z"/>
 </g>
</svg>
